public/icon/information.svg

﻿<?xml version="1.0" encoding="utf-8"?>
<!DOCTYPE svg PUBLIC "-//W3C//DTD SVG 1.1//EN" "http://www.w3.org/Graphics/SVG/1.1/DTD/svg11.dtd">
<svg xmlns="http://www.w3.org/2000/svg" xmlns:xlink="http://www.w3.org/1999/xlink" version="1.1" baseProfile="full" width="24" height="24" viewBox="0 0 24.00 24.00" enable-background="new 0 0 24.00 24.00" xml:space="preserve">
	<path fill="#000000" fill-opacity="1" stroke-width="0.2" stroke-linejoin="round" d="M 11.5,3C 16.7467,3 21,7.25329 21,12.5C 21,17.7467 16.7467,22 11.5,22C 6.25329,22 2,17.7467 2,12.5C 2,7.25329 6.25329,3 11.5,3 Z M 11.5,4C 6.80557,4 3,7.80558 3,12.5C 3,17.1944 6.80558,21 11.5,21C 16.1944,21 20,17.1944 20,12.5C 20,7.80558 16.1944,4 11.5,4 Z M 11,8.00001L 11,10L 12,10L 12,8.00001L 11,8.00001 Z M 11,12L 11,17L 12,17L 12,12L 11,12 Z "/>
</svg>

﻿<svg xmlns="http://www.w3.org/2000/svg" baseProfile="full" width="24" height="24">
	<path d="M11.5 3a9.5 9.5 0 110 19 9.5 9.5 0 010-19zm0 1a8.5 8.5 0 100 17 8.5 8.5 0 000-17zM11 8v2h1V8h-1zm0 4v5h1v-5h-1z"/>
</svg>
